src/actions/symbolic/dnd-symbolic.svg

<svg width="16" height="16" version="1.1" viewBox="0 0 16 16" xmlns="http://www.w3.org/2000/svg">
 <path d="m1.5 4a1.5 1.5 0 0 0-1.5 1.5 1.5 1.5 0 0 0 1.5 1.5 1.5 1.5 0 0 0 1.5-1.5 1.5 1.5 0 0 0-1.5-1.5zm0 1a0.5 0.5 0 0 1 0.5 0.5 0.5 0.5 0 0 1-0.5 0.5 0.5 0.5 0 0 1-0.5-0.5 0.5 0.5 0 0 1 0.5-0.5z" fill="#363636"/>
 <path d="m1.5 9a1.5 1.5 0 0 0-1.5 1.5 1.5 1.5 0 0 0 1.5 1.5 1.5 1.5 0 0 0 1.5-1.5 1.5 1.5 0 0 0-1.5-1.5zm0 1a0.5 0.5 0 0 1 0.5 0.5 0.5 0.5 0 0 1-0.5 0.5 0.5 0.5 0 0 1-0.5-0.5 0.5 0.5 0 0 1 0.5-0.5z" fill="#363636"/>
 <path d="M 5.5,4 A 1.5,1.5 0 0 0 4,5.5 1.5,1.5 0 0 0 5.5,7 1.5,1.5 0 0 0 7,5.5 1.5,1.5 0 0 0 5.5,4 Z m 0,1 A 0.5,0.5 0 0 1 6,5.5 0.5,0.5 0 0 1 5.5,6 0.5,0.5 0 0 1 5,5.5 0.5,0.5 0 0 1 5.5,5 Z" fill="#363636"/>
 <path d="m5.5 9a1.5 1.5 0 0 0-1.5 1.5 1.5 1.5 0 0 0 1.5 1.5 1.5 1.5 0 0 0 1.5-1.5 1.5 1.5 0 0 0-1.5-1.5zm0 1a0.5 0.5 0 0 1 0.5 0.5 0.5 0.5 0 0 1-0.5 0.5 0.5 0.5 0 0 1-0.5-0.5 0.5 0.5 0 0 1 0.5-0.5z" fill="#363636"/>
 <path d="M 9.5,4 A 1.5,1.5 0 0 0 8,5.5 1.5,1.5 0 0 0 9.5,7 1.5,1.5 0 0 0 11,5.5 1.5,1.5 0 0 0 9.5,4 Z m 0,1 A 0.5,0.5 0 0 1 10,5.5 0.5,0.5 0 0 1 9.5,6 0.5,0.5 0 0 1 9,5.5 0.5,0.5 0 0 1 9.5,5 Z" fill="#363636"/>
 <path d="m9.5 9a1.5 1.5 0 0 0-1.5 1.5 1.5 1.5 0 0 0 1.5 1.5 1.5 1.5 0 0 0 1.5-1.5 1.5 1.5 0 0 0-1.5-1.5zm0 1a0.5 0.5 0 0 1 0.5 0.5 0.5 0.5 0 0 1-0.5 0.5 0.5 0.5 0 0 1-0.5-0.5 0.5 0.5 0 0 1 0.5-0.5z" fill="#363636"/>
 <path d="m13.5 4a1.5 1.5 0 0 0-1.5 1.5 1.5 1.5 0 0 0 1.5 1.5 1.5 1.5 0 0 0 1.5-1.5 1.5 1.5 0 0 0-1.5-1.5zm0 1a0.5 0.5 0 0 1 0.5 0.5 0.5 0.5 0 0 1-0.5 0.5 0.5 0.5 0 0 1-0.5-0.5 0.5 0.5 0 0 1 0.5-0.5z" fill="#363636"/>
 <path d="m13.5 9a1.5 1.5 0 0 0-1.5 1.5 1.5 1.5 0 0 0 1.5 1.5 1.5 1.5 0 0 0 1.5-1.5 1.5 1.5 0 0 0-1.5-1.5zm0 1a0.5 0.5 0 0 1 0.5 0.5 0.5 0.5 0 0 1-0.5 0.5 0.5 0.5 0 0 1-0.5-0.5 0.5 0.5 0 0 1 0.5-0.5z" fill="#363636"/>
</svg>

<svg xmlns="http://www.w3.org/2000/svg" width="16" height="16">
    <path fill="#050505" fill-opacity=".7" d="M1.5 4A1.5 1.5 0 0 0 0 5.5 1.5 1.5 0 0 0 1.5 7 1.5 1.5 0 0 0 3 5.5 1.5 1.5 0 0 0 1.5 4zm0 1a.5.5 0 0 1 .5.5.5.5 0 0 1-.5.5.5.5 0 0 1-.5-.5.5.5 0 0 1 .5-.5zM1.5 9A1.5 1.5 0 0 0 0 10.5 1.5 1.5 0 0 0 1.5 12 1.5 1.5 0 0 0 3 10.5 1.5 1.5 0 0 0 1.5 9zm0 1a.5.5 0 0 1 .5.5.5.5 0 0 1-.5.5.5.5 0 0 1-.5-.5.5.5 0 0 1 .5-.5zM5.5 4A1.5 1.5 0 0 0 4 5.5 1.5 1.5 0 0 0 5.5 7 1.5 1.5 0 0 0 7 5.5 1.5 1.5 0 0 0 5.5 4Zm0 1a.5.5 0 0 1 .5.5.5.5 0 0 1-.5.5.5.5 0 0 1-.5-.5.5.5 0 0 1 .5-.5ZM5.5 9A1.5 1.5 0 0 0 4 10.5 1.5 1.5 0 0 0 5.5 12 1.5 1.5 0 0 0 7 10.5 1.5 1.5 0 0 0 5.5 9zm0 1a.5.5 0 0 1 .5.5.5.5 0 0 1-.5.5.5.5 0 0 1-.5-.5.5.5 0 0 1 .5-.5zM9.5 4A1.5 1.5 0 0 0 8 5.5 1.5 1.5 0 0 0 9.5 7 1.5 1.5 0 0 0 11 5.5 1.5 1.5 0 0 0 9.5 4Zm0 1a.5.5 0 0 1 .5.5.5.5 0 0 1-.5.5.5.5 0 0 1-.5-.5.5.5 0 0 1 .5-.5ZM9.5 9A1.5 1.5 0 0 0 8 10.5 1.5 1.5 0 0 0 9.5 12a1.5 1.5 0 0 0 1.5-1.5A1.5 1.5 0 0 0 9.5 9zm0 1a.5.5 0 0 1 .5.5.5.5 0 0 1-.5.5.5.5 0 0 1-.5-.5.5.5 0 0 1 .5-.5zM13.5 4A1.5 1.5 0 0 0 12 5.5 1.5 1.5 0 0 0 13.5 7 1.5 1.5 0 0 0 15 5.5 1.5 1.5 0 0 0 13.5 4zm0 1a.5.5 0 0 1 .5.5.5.5 0 0 1-.5.5.5.5 0 0 1-.5-.5.5.5 0 0 1 .5-.5zM13.5 9a1.5 1.5 0 0 0-1.5 1.5 1.5 1.5 0 0 0 1.5 1.5 1.5 1.5 0 0 0 1.5-1.5A1.5 1.5 0 0 0 13.5 9zm0 1a.5.5 0 0 1 .5.5.5.5 0 0 1-.5.5.5.5 0 0 1-.5-.5.5.5 0 0 1 .5-.5z"/>
</svg>
